X: 10
T: IHTFP
C: MIT
M: 3/4
L: 1/4
V: 1
K: Em
V: 1
^G z3/4 g' 3 /  4 =D /:|   (2 a ^b | (3 e/A/C,/ A2| (4A D'' _c c |: [c2 A2 ^F2] f :| [g ^A a] [A a] _A |
_F f/2 F =F |: F (3 ^d/ a/c/ G|[1     e3 :|[2 =f =a/2 =c/2 z/2 z/|